X: 30554
T: On The Wings Of A Skorie
R: reel
M: 4/4
K: Eminor
|:BE E2 BEcE|BE E2 GFGB|ABGB AGFA|GEED EFGA|
BE E2 BEcE|BE E2 GFGB|ABGB AGFA|1 GEED E3A:|2 GEED E3G||
|:EBBG AGFA|GE E2 GA (3Bcd|Beed efge|fedf eBgf|
eB B2 BAFA|GE E2 GA (3Bcd|fadf efdB|1 ABdf e2 BA:|2 ABdf e4||

